src/components/Icon/assets/chat-check.svg

<svg width="24" height="24" viewBox="0 0 24 24" fill="none" xmlns="http://www.w3.org/2000/svg">
<path fill-rule="evenodd" clip-rule="evenodd" d="M18.8306 17.7236C18.6126 17.0676 18.6806 16.3516 19.0236 15.7076C19.9076 14.0526 20.1746 12.1876 19.7976 10.3136C19.1506 7.10259 16.5436 4.59259 13.3076 4.06859C12.8566 3.99559 12.4066 3.95959 11.9616 3.95959C9.84062 3.95959 7.83462 4.77759 6.31262 6.29759C4.47162 8.13459 3.65362 10.6826 4.06962 13.2866C4.61162 16.6726 7.37262 19.3816 10.7856 19.8746C12.4966 20.1216 14.2016 19.8256 15.7116 19.0206C16.3536 18.6766 17.0686 18.6076 17.7266 18.8266L19.3826 19.3786L18.8306 17.7236ZM20.7886 16.6486C20.7406 16.7376 20.6696 16.9156 20.7286 17.0916L21.5966 19.6946C21.7766 20.2376 21.6386 20.8256 21.2336 21.2296C20.8296 21.6346 20.2406 21.7706 19.6986 21.5926L17.0936 20.7246C16.9196 20.6656 16.7426 20.7356 16.6536 20.7836C15.1976 21.5616 13.5996 21.9596 11.9636 21.9596C11.4776 21.9596 10.9886 21.9246 10.4996 21.8536C6.22963 21.2376 2.77363 17.8436 2.09563 13.6026C1.57663 10.3566 2.59863 7.1786 4.89963 4.8816C7.20063 2.5846 10.3786 1.5706 13.6276 2.0946C17.6806 2.7506 20.9486 5.8946 21.7586 9.9196C22.2286 12.2536 21.8936 14.5806 20.7886 16.6486ZM7.36254 10.978L10.4035 13.898L16.5805 8.09399L17.9495 9.55099L10.3885 16.657L5.97754 12.421L7.36254 10.978Z" fill="#65676A"/>
</svg>

<svg xmlns="http://www.w3.org/2000/svg" width="24" height="24" viewBox="0 0 24 24">
    <path fill="#65676A" fill-rule="evenodd" d="M4.9 4.882c2.3-2.297 5.479-3.311 8.728-2.787 4.053.656 7.32 3.8 8.13 7.825.47 2.334.136 4.66-.97 6.729-.047.089-.118.267-.06.443l.869 2.603c.18.543.042 1.13-.363 1.535-.404.405-.993.54-1.535.363l-2.605-.868c-.174-.06-.351.01-.44.059-1.456.778-3.054 1.176-4.69 1.176-.486 0-.975-.035-1.464-.106-4.27-.616-7.726-4.01-8.404-8.251-.52-3.246.503-6.424 2.804-8.721zm7.062-.922c-2.121 0-4.127.818-5.65 2.338-1.84 1.837-2.658 4.385-2.242 6.989.542 3.386 3.303 6.095 6.716 6.588 1.71.247 3.416-.05 4.926-.854.642-.344 1.357-.413 2.015-.194l1.656.552-.552-1.655c-.218-.656-.15-1.372.193-2.016.884-1.655 1.15-3.52.774-5.394-.647-3.211-3.254-5.721-6.49-6.245-.451-.073-.901-.11-1.346-.11zm4.619 4.134l1.369 1.457-7.561 7.106-4.411-4.236 1.385-1.443 3.04 2.92 6.178-5.804z"/>
</svg>
